_prebuild/svg/weeklyreads.svg

<?xml version="1.0" encoding="UTF-8" standalone="no"?>
<svg width="34px" height="34px" viewBox="0 0 34 34" version="1.1" xmlns="http://www.w3.org/2000/svg" xmlns:xlink="http://www.w3.org/1999/xlink">
    <!-- Generator: Sketch Beta 3.7.2 (28276) - http://www.bohemiancoding.com/sketch -->
    <title>mail</title>
    <desc>Created with Sketch Beta.</desc>
    <defs>
        <circle id="path-1" cx="17" cy="17" r="17"></circle>
        <mask id="mask-2" maskContentUnits="userSpaceOnUse" maskUnits="objectBoundingBox" x="0" y="0" width="34" height="34" fill="white">
            <use xlink:href="#path-1"></use>
        </mask>
    </defs>
    <g id="Symbols" stroke="none" stroke-width="1" fill="none" fill-rule="evenodd">
        <g id="Footer" transform="translate(-826.000000, -230.000000)">
            <g id="Footer+Img" transform="translate(170.000000, 86.000000)">
                <g id="WeeklyReads" transform="translate(656.000000, 144.000000)">
                    <g id="mail">
                        <rect id="Rectangle" x="0" y="0" width="34" height="34"></rect>
                        <use id="Oval" stroke="#FFFFFF" mask="url(#mask-2)" stroke-width="4" xlink:href="#path-1"></use>
                        <path d="M10.1316507,14.6292091 C10.3467123,14.7696437 10.9949247,15.186852 12.0764041,15.8805107 C13.1578836,16.5741694 13.9863425,17.1083168 14.5618973,17.4828451 C14.6251233,17.5239085 14.7594932,17.6131486 14.9650068,17.7506732 C15.1705205,17.8883056 15.3413356,17.9996402 15.4772192,18.0844614 C15.6132192,18.1692827 15.7776301,18.2644506 15.9705685,18.3697496 C16.1635068,18.4750486 16.3453836,18.5541576 16.5160822,18.6066455 C16.6868973,18.6594566 16.8450205,18.6856467 16.9904521,18.6856467 L17,18.6856467 L17.0095479,18.6856467 C17.1549795,18.6856467 17.3131027,18.6594566 17.4839178,18.6066455 C17.6546164,18.5541576 17.8366096,18.4749408 18.0294315,18.3697496 C18.2222534,18.2643428 18.3866644,18.1692827 18.5226644,18.0844614 C18.6586644,17.9996402 18.829363,17.8883056 19.0348767,17.7506732 C19.2403904,17.6130408 19.3748767,17.5239085 19.4381027,17.4828451 C20.0198288,17.108209 21.4998767,16.1569611 23.8777808,14.6289935 C24.3394589,14.3305565 24.7251027,13.9704704 25.0350616,13.548951 C25.345137,13.1276471 25.5,12.6856498 25.5,12.2231748 C25.5,11.8367909 25.3496781,11.5060205 25.0492671,11.2308635 C24.7488562,10.9557064 24.3930205,10.8181818 23.9821096,10.8181818 L10.017774,10.8181818 C9.53082877,10.8181818 9.15613014,10.9703642 8.89367808,11.2747291 C8.63122603,11.5792017 8.5,11.9597656 8.5,12.4163128 C8.5,12.7851289 8.6739589,13.1847694 9.02176027,13.6150189 C9.36956164,14.0452683 9.73960274,14.3833676 10.1316507,14.6292091 Z M24.5512603,15.5687092 C22.4770274,16.8681876 20.9020822,17.8780667 19.8271233,18.598131 C19.4666301,18.8439724 19.174137,19.0358171 18.9495274,19.173234 C18.7250342,19.3108664 18.4262534,19.451301 18.0530685,19.5947534 C17.68,19.7382058 17.3321986,19.8098782 17.0096644,19.8098782 L17,19.8098782 L16.9904521,19.8098782 C16.6679178,19.8098782 16.32,19.7382058 15.9469315,19.5947534 C15.573863,19.451301 15.2749658,19.3108664 15.0504726,19.173234 C14.8259795,19.0358171 14.5334863,18.8439724 14.1729932,18.598131 C13.3191507,18.0186091 11.7475822,17.00873 9.45817123,15.5687092 C9.09767808,15.3463634 8.77828767,15.0915764 8.5,14.8047793 L8.5,21.7767174 C8.5,22.1632091 8.64857534,22.4938717 8.94584247,22.7690287 C9.24310959,23.0442936 9.6004589,23.1818182 10.0178904,23.1818182 L23.982226,23.1818182 C24.3995411,23.1818182 24.7568904,23.0442936 25.0541575,22.7690287 C25.3515411,22.4937639 25.5,22.1632091 25.5,21.7767174 L25.5,14.8047793 C25.228,15.0856486 24.9118699,15.3404356 24.5512603,15.5687092 Z" id="Shape" fill="#F7F7F7"></path>
                    </g>
                </g>
            </g>
        </g>
    </g>
</svg>

<svg width="34" height="34" viewBox="0 0 34 34" xmlns="http://www.w3.org/2000/svg" xmlns:xlink="http://www.w3.org/1999/xlink"><title>mail</title><defs><circle id="a" cx="17" cy="17" r="17"/><mask id="b" x="0" y="0" width="34" height="34" fill="#fff"><use xlink:href="#a"/></mask></defs><g fill="none" fill-rule="evenodd"><path fill="#fff" d="M0 0h34v34H0z"/><use stroke="#FFF" mask="url(#b)" stroke-width="4" xlink:href="#a"/><path d="M10.132 14.63c.215.14.863.557 1.944 1.25 1.082.694 1.91 1.228 2.486 1.603.063.04.197.13.403.268.206.137.376.249.512.333.136.085.3.18.494.286.193.105.374.184.545.237.17.052.329.079.474.079h.02c.145 0 .303-.027.474-.08.17-.052.353-.131.545-.236.193-.106.358-.2.494-.286.136-.084.306-.196.512-.333.205-.138.34-.227.403-.268l4.44-2.854a4.352 4.352 0 0 0 1.157-1.08c.31-.421.465-.863.465-1.326 0-.386-.15-.717-.45-.992a1.527 1.527 0 0 0-1.068-.413H10.018c-.487 0-.862.152-1.124.457-.263.304-.394.685-.394 1.141 0 .37.174.769.522 1.199.348.43.718.768 1.11 1.014zm14.42.939c-2.075 1.3-3.65 2.31-4.725 3.03-.36.245-.653.437-.877.574a5.59 5.59 0 0 1-.897.422 2.92 2.92 0 0 1-1.043.215h-.02a2.92 2.92 0 0 1-1.043-.215 5.595 5.595 0 0 1-.897-.422c-.224-.137-.517-.329-.877-.575-.854-.58-2.425-1.59-4.715-3.03a4.943 4.943 0 0 1-.958-.763v6.972c0 .386.149.717.446.992.297.275.654.413 1.072.413h13.964c.418 0 .775-.138 1.072-.413.298-.275.446-.606.446-.992v-6.972c-.272.28-.588.535-.949.764z" fill="#F7F7F7"/></g></svg>
